public/icons/ReactiveX-Dark.svg

<svg width="256" height="256" viewBox="0 0 256 256" fill="none" xmlns="http://www.w3.org/2000/svg">
<rect width="256" height="256" rx="60" fill="#242938"/>
<path d="M45.3867 153.535C35.6479 101.757 61.3858 51.8202 120.459 45.1771C112.313 36.4727 101.184 36.4073 96.064 37.4661C87.0233 40.3473 87.3071 46.1976 77.0522 53.7544C66.8573 59.5773 61.7371 55.1181 54.3105 61.1545C46.8998 67.1459 52.0708 80.8998 48.9628 83.5738C45.8776 88.9216 36.3072 93.6856 34.565 100.44C33.1253 109.078 38.473 115.249 38.2673 122.653C38.8844 128.824 32.1244 132.313 33.0956 137.314C36.0048 145.484 41.6121 150.402 44.2555 152.668C44.8617 153.095 45.5019 154.148 45.3867 153.535Z" fill="#FF0090"/>
<path d="M150.501 81.8602C148.343 81.8602 146.593 80.1103 146.593 77.9522C146.593 75.7941 148.343 74.0443 150.501 74.0443C152.659 74.0443 154.409 75.7941 154.409 77.9522C154.409 80.1103 152.659 81.8602 150.501 81.8602ZM47.6667 159.183C38.3078 114.182 67.2683 76.5811 123.351 95.0925C156.259 114.344 197.655 113.09 199.522 100.646C204.13 85.7275 178.542 54.9845 140.285 46.9629C64.3888 32.1538 23.4723 114.182 47.6667 159.183Z" fill="url(#paint0_radial_404_333)"/>
<path d="M172.166 164.201C183.436 165.422 194.133 162.717 204.047 154.637C189.07 171.342 170.343 179.742 148.856 182.027C159.115 190.749 169.009 194.678 178.474 192.997C152.174 200.254 130.139 192.266 103.335 165.573C101.931 172.758 109.521 183.954 117.343 191.101C71.9557 171.424 67.9766 110.127 123.322 95.0489C65.95 67.4845 33.5092 121.042 49.4478 164.938C65.0427 198.747 106.6 224.774 152.146 219.05C174.27 216.34 207.307 201.087 220.803 164.938C211.291 173.474 194.288 180.908 186.701 181.478C212.381 168.645 226.243 146.837 222.352 117.032C217.033 129.696 210.015 139.421 201.236 146.101C219.884 117.032 216.684 102.007 202.881 85.4937C212.754 112.644 199.983 142.777 172.166 164.201Z" fill="url(#paint1_radial_404_333)"/>
<path d="M158.988 195.479C157.039 195.115 163.405 198.058 151.098 194.8C138.791 191.542 126.26 188.402 103.335 165.572C101.931 172.758 109.521 183.954 117.343 191.1C138.46 205.827 124.099 198.94 156.274 210.062C158.856 204.923 158.988 200.356 158.988 195.479Z" fill="url(#paint2_linear_404_333)"/>
<path d="M118.078 79.8355C118.078 79.8355 120.875 75.7066 121.964 73.8444C123.298 71.5625 125.348 67.4032 125.348 67.4032C125.348 67.4032 103.815 60.3782 98.5309 59.521C82.1045 63.785 82.0447 70.667 91.2284 81.2008C92.2502 82.3732 118.078 79.8355 118.078 79.8355Z" fill="url(#paint3_linear_404_333)"/>
<defs>
<radialGradient id="paint0_radial_404_333" cx="0" cy="0" r="1" gradientUnits="userSpaceOnUse" gradientTransform="translate(166.219 88.3392) scale(143.203 102.44)">
<stop stop-color="#F80090"/>
<stop offset="1" stop-color="#4D008E"/>
</radialGradient>
<radialGradient id="paint1_radial_404_333" cx="0" cy="0" r="1" gradientUnits="userSpaceOnUse" gradientTransform="translate(167.48 91.4028) scale(145.151 109.801)">
<stop stop-color="#57008E"/>
<stop offset="0.291746" stop-color="#5C008E"/>
<stop offset="1" stop-color="#F80090"/>
</radialGradient>
<linearGradient id="paint2_linear_404_333" x1="113.347" y1="165.572" x2="139.005" y2="208.722" gradientUnits="userSpaceOnUse">
<stop stop-color="#F70090"/>
<stop offset="0.669713" stop-color="#E50090"/>
<stop offset="0.827148" stop-color="#D6008F" stop-opacity="0.2"/>
<stop offset="1" stop-color="#C10090" stop-opacity="0"/>
</linearGradient>
<linearGradient id="paint3_linear_404_333" x1="111.214" y1="75.2561" x2="107.491" y2="68.1246" gradientUnits="userSpaceOnUse">
<stop stop-color="#B2008F" stop-opacity="0.15134"/>
<stop offset="0.400351" stop-color="#F70090" stop-opacity="0.4"/>
<stop offset="0.648996" stop-color="#F60090" stop-opacity="0.891668"/>
<stop offset="1" stop-color="#FF0090"/>
</linearGradient>
</defs>
</svg>

<svg xmlns="http://www.w3.org/2000/svg" width="256" height="256" fill="none"><rect width="256" height="256" fill="#242938" rx="60"/><path fill="#FF0090" d="M45.387 153.535c-9.74-51.778 15.999-101.715 75.072-108.358-8.146-8.704-19.275-8.77-24.395-7.71-9.04 2.88-8.757 8.73-19.012 16.287-10.195 5.823-15.315 1.364-22.742 7.4-7.41 5.992-2.24 19.746-5.347 22.42-3.085 5.348-12.656 10.112-14.398 16.866-1.44 8.638 3.908 14.809 3.702 22.213.617 6.171-6.143 9.66-5.171 14.661 2.909 8.17 8.516 13.088 11.16 15.354.606.427 1.246 1.48 1.13.867"/><path fill="url(#a)" d="M150.501 81.86a3.908 3.908 0 1 1 0-7.817 3.908 3.908 0 0 1 0 7.817M47.667 159.183c-9.36-45.001 19.601-82.602 75.684-64.09 32.908 19.251 74.304 17.997 76.171 5.553 4.608-14.918-20.98-45.662-59.237-53.683-75.896-14.81-116.813 67.219-92.618 112.22"/><path fill="url(#b)" d="M172.166 164.201c11.27 1.221 21.967-1.484 31.881-9.564-14.977 16.705-33.704 25.105-55.191 27.39 10.259 8.722 20.153 12.651 29.618 10.97-26.3 7.257-48.335-.731-75.139-27.424-1.404 7.185 6.186 18.381 14.008 25.528-45.387-19.677-49.366-80.974 5.979-96.052-57.372-27.565-89.813 25.993-73.874 69.889 15.595 33.809 57.152 59.836 102.698 54.112 22.124-2.71 55.161-17.963 68.657-54.112-9.512 8.536-26.515 15.97-34.102 16.54 25.68-12.833 39.542-34.641 35.651-64.446-5.319 12.664-12.337 22.389-21.116 29.069 18.648-29.069 15.448-44.094 1.645-60.607 9.873 27.15-2.898 57.283-30.715 78.707"/><path fill="url(#c)" d="M158.988 195.479c-1.949-.364 4.417 2.579-7.89-.679s-24.838-6.398-47.763-29.228c-1.404 7.186 6.186 18.382 14.008 25.528 21.117 14.727 6.756 7.84 38.931 18.962 2.582-5.139 2.714-9.706 2.714-14.583"/><path fill="url(#d)" d="M118.078 79.836s2.797-4.13 3.886-5.992c1.334-2.281 3.384-6.44 3.384-6.44s-21.533-7.026-26.817-7.883c-16.427 4.264-16.486 11.146-7.303 21.68 1.022 1.172 26.85-1.365 26.85-1.365"/><defs><radialGradient id="a" cx="0" cy="0" r="1" gradientTransform="matrix(143.203 0 0 102.44 166.219 88.34)" gradientUnits="userSpaceOnUse"><stop stop-color="#F80090"/><stop offset="1" stop-color="#4D008E"/></radialGradient><radialGradient id="b" cx="0" cy="0" r="1" gradientTransform="matrix(145.151 0 0 109.801 167.48 91.403)" gradientUnits="userSpaceOnUse"><stop stop-color="#57008E"/><stop offset=".292" stop-color="#5C008E"/><stop offset="1" stop-color="#F80090"/></radialGradient><linearGradient id="c" x1="113.347" x2="139.005" y1="165.572" y2="208.722" gradientUnits="userSpaceOnUse"><stop stop-color="#F70090"/><stop offset=".67" stop-color="#E50090"/><stop offset=".827" stop-color="#D6008F" stop-opacity=".2"/><stop offset="1" stop-color="#C10090" stop-opacity="0"/></linearGradient><linearGradient id="d" x1="111.214" x2="107.491" y1="75.256" y2="68.125" gradientUnits="userSpaceOnUse"><stop stop-color="#B2008F" stop-opacity=".151"/><stop offset=".4" stop-color="#F70090" stop-opacity=".4"/><stop offset=".649" stop-color="#F60090" stop-opacity=".892"/><stop offset="1" stop-color="#FF0090"/></linearGradient></defs></svg>
